X:485
%%etbk:tnset id:204,pos:1,rep:3x,ant:B1-S-B2-S-B1-S-B2-S-B1
%%etbk:pldat 2016-06-09T18:25,2016-06-08T15:46,2016-06-07T15:44,2016-06-04T14:41,2016-06-02T18:18,2016-06-01T16:09,2016-05-31T16:26,2016-05-30T18:31,2016-05-29T11:19,2016-05-16T15:32,2016-05-15T15:19,2016-05-13T15:45,2016-05-11T15:44,2016-03-03T18:54,2016-03-02T15:56,2016-03-01T17:49,2016-02-29T18:25,2016-02-27T13:23,2016-02-22T18:10,2016-02-04T18:09,2016-02-03T15:14,2016-02-02T15:39,2016-02-01T18:24,2016-01-28T18:21,2016-01-26T15:24,2016-01-24T14:48,2016-01-23T14:50,2016-01-20T15:15,2016-01-19T16:19,2016-01-17T11:11,2016-01-16T14:32,2014-04-09T15:35,2014-04-06T11:27,2014-04-02T16:22,2014-01-30T18:32,2014-01-29T16:40,2014-01-27T18:06,2014-01-17T17:45,2014-01-15T17:00,2014-01-09T18:43,2013-12-29T13:11,2013-12-28T13:10,2013-12-21T17:18,2013-12-16T18:41,2013-12-09T18:01,2013-12-08T15:00
T: The Green Glens of Gweedore
M: 6/8
H: Created 2013-07-08 /  Modified 2013-12-08
P: B1-S-B2-S-B1-S-B2-S-B1  (B1,B2 start at Coda)                % play the parts in this order
%%score (M1) (M2)
V:M1  clef=treble  
V:M2  clef=treble    
R: song
L:1/8
K:Dm
%            End of header, start of tune body:
P:Intro, Bridge 1 (B1) 
[V:M1] _e3 d3 | c6 | _e3 d3 | c3 B3 | -B6 | -B3 z3|
[V:M2] "F"[F3E3] [F3D3] | [F3C3]-[F3C3]| [F3E3] [F3D3] | [F3C3] "B"[F3B,3]|-[F3B,3]-[F3B,3]| -[F3B,3] z3 |
P:Song (S) 
[V:M1] C | "C"!3!G>AB G2 !1!C  | !5!G2E !4!F!3!E!1!C | "B"!2!B,2A,/B,/ "F"C2D | "C"C3-C2!5!c |
[V:M2] z | [C6G]  | -[C3G] [G,3C] | B,3 [A,3C] | [G,6C]| 
%%newpage
I:newpage
[V:M1] "F"!4!A>GF !3!G!4!A!3!B | "C"!5!c2!4!B !3!G2!5!c | !4!B>!4!AG !2!F!1!C!2!D | "B/G (gm)"!1!B,3-B,2c |
[V:M2]  [C6A] | [C6G] | -[C6G] | [B,6G] | 
[V:M1] "F"!4!A>GF !3!G!4!A!3!B | "C"!5!c2!4!B !3!G2!5!c | !4!B>!4!AG !2!F!1!C!2!D | "B/G (gm)"!1!B,3-B,2C | 
[V:M2] [C6A] | [C6G] | -[C6G] | [B,6G] |  
[V:M1] "C"!3!G>AB G2 !1!C  | !5!G2E !4!F!3!E!1!C | "B"!2!B,2A,/B,/ "F"C2D  !coda!| "C"C3-C2 |
[V:M2] [C6G]  | -[C3G] [G,3C] | B,3 [A,3C] | [G,6C]| 
P:Bridge 2 (B2) 
[V:M1] C3 "C"C/D/E/ F/G/A/ |  B3  "F"F3   |"C"G3 -G3|
[V:M2]  C6| - C3 [C3F] | [C6G] |


